X: 7398
T:Maltese Brawl
R:Branle
O:England
M:2/4
L:1/8
K:Bm
f|\
fe fe|dd dc|BA Bc|BB B::\
e/d/|cB cd|cB cf/e/|dc BA|1 BB B :|2 B3|]
